icons/svg/road_shields/h_white_pillow_2_road_shield.svg

<?xml version="1.0" encoding="UTF-8" standalone="no"?>
<!-- Generator: Adobe Illustrator 16.0.4, SVG Export Plug-In . SVG Version: 6.00 Build 0)  -->

<svg
   xmlns:dc="http://purl.org/dc/elements/1.1/"
   xmlns:cc="http://creativecommons.org/ns#"
   xmlns:rdf="http://www.w3.org/1999/02/22-rdf-syntax-ns#"
   xmlns:svg="http://www.w3.org/2000/svg"
   xmlns="http://www.w3.org/2000/svg"
   xmlns:sodipodi="http://sodipodi.sourceforge.net/DTD/sodipodi-0.dtd"
   xmlns:inkscape="http://www.inkscape.org/namespaces/inkscape"
   version="1.1"
   id="Слой_1"
   x="0px"
   y="0px"
   width="27"
   height="27"
   viewBox="0 0 27 27"
   enable-background="new 0 0 17.143 17.17"
   xml:space="preserve"
   inkscape:version="0.91 r13725"
   sodipodi:docname="h_white_pillow_2_road_shield.svg"><metadata
     id="metadata13"><rdf:RDF><cc:Work
         rdf:about=""><dc:format>image/svg+xml</dc:format><dc:type
           rdf:resource="http://purl.org/dc/dcmitype/StillImage" /><dc:title></dc:title></cc:Work></rdf:RDF></metadata><defs
     id="defs11" /><sodipodi:namedview
     pagecolor="#ffffff"
     bordercolor="#666666"
     borderopacity="1"
     objecttolerance="10"
     gridtolerance="10"
     guidetolerance="10"
     inkscape:pageopacity="0"
     inkscape:pageshadow="2"
     inkscape:window-width="1920"
     inkscape:window-height="1006"
     id="namedview9"
     showgrid="false"
     inkscape:zoom="16"
     inkscape:cx="20.388876"
     inkscape:cy="14.058101"
     inkscape:window-x="1920"
     inkscape:window-y="0"
     inkscape:window-maximized="1"
     inkscape:current-layer="Слой_1" /><path
     style="color:#000000;clip-rule:evenodd;display:inline;overflow:visible;visibility:visible;opacity:0.70400002;isolation:auto;mix-blend-mode:normal;color-interpolation:sRGB;color-interpolation-filters:linearRGB;solid-color:#000000;solid-opacity:1;fill:#515151;fill-opacity:1;fill-rule:evenodd;stroke:none;stroke-width:2.11525011;stroke-linecap:butt;stroke-linejoin:miter;stroke-miterlimit:4;stroke-dasharray:none;stroke-dashoffset:0;stroke-opacity:1;marker:none;color-rendering:auto;image-rendering:auto;shape-rendering:auto;text-rendering:auto;enable-background:accumulate"
     d="M 13.581559,3.9613246 C 6.1017431,3.8816513 1.3460922,7.4226443 1.3460922,7.4226443 0.9818529,7.5906946 0.7587624,7.8939882 0.7585369,8.2214314 l 0,10.5588866 c -1.39e-5,0.334532 0.2325286,0.643369 0.6091934,0.809061 0,0 4.8032995,3.450621 12.1988487,3.450621 7.395548,0 12.079006,-3.457042 12.079006,-3.457042 0.368969,-0.16715 0.595673,-0.472518 0.595878,-0.80264 l 0,-10.5588866 c -1.52e-4,-0.332817 -0.23049,-0.6402737 -0.604199,-0.8064925 0,0 -4.606525,-3.3742675 -12.055705,-3.4536143 z"
     id="path4152"
     inkscape:connector-curvature="0"
     sodipodi:nodetypes="sccccsccccs" /><path
     style="color:#000000;clip-rule:evenodd;display:inline;overflow:visible;visibility:visible;opacity:1;isolation:auto;mix-blend-mode:normal;color-interpolation:sRGB;color-interpolation-filters:linearRGB;solid-color:#000000;solid-opacity:1;fill:#ffffff;fill-opacity:1;fill-rule:evenodd;stroke:none;stroke-width:1;stroke-linecap:butt;stroke-linejoin:miter;stroke-miterlimit:4;stroke-dasharray:none;stroke-dashoffset:0;stroke-opacity:1;marker:none;color-rendering:auto;image-rendering:auto;shape-rendering:auto;text-rendering:auto;enable-background:accumulate"
     d="m 1.8281561,8.5456054 c 0,0 4.4762976,-3.5759506 11.7392169,-3.4994994 7.262918,0.076451 11.604471,3.4994994 11.604471,3.4994994 l 0,9.9099976 c 0,0 -4.414233,3.499499 -11.604471,3.499499 -7.1902386,0 -11.7392166,-3.499499 -11.7392166,-3.499499 z"
     id="rect4135"
     inkscape:connector-curvature="0"
     sodipodi:nodetypes="czcczcc" /></svg>

<svg width="27" height="27" viewBox="0 0 27 27" fill="none" xmlns="http://www.w3.org/2000/svg">
<path opacity="0.704" fill-rule="evenodd" clip-rule="evenodd" d="M13.5816 3.96135C6.10174 3.88167 1.34609 7.42267 1.34609 7.42267C0.981853 7.59072 0.758763 7.89401 0.758537 8.22145V18.7803C0.758523 19.1149 0.991066 19.4237 1.36773 19.5894C1.36773 19.5894 6.17103 23.04 13.5666 23.04C20.9621 23.04 25.6456 19.583 25.6456 19.583C26.0146 19.4158 26.2413 19.1105 26.2415 18.7803V8.22145C26.2413 7.88864 26.011 7.58118 25.6373 7.41496C25.6373 7.41496 21.0307 4.04069 13.5816 3.96135V3.96135Z" fill="#515151"/>
<path fill-rule="evenodd" clip-rule="evenodd" d="M1.82816 8.54563C1.82816 8.54563 6.30445 4.96968 13.5674 5.04613C20.8303 5.12258 25.1718 8.54563 25.1718 8.54563V18.4556C25.1718 18.4556 20.7576 21.9551 13.5674 21.9551C6.37713 21.9551 1.82816 18.4556 1.82816 18.4556L1.82816 8.54563Z" fill="white"/>
</svg>
